SVG_Azure_Grouped/Office365/O365 - Power App Virtual Agent.svg

<?xml version="1.0" encoding="UTF-8" standalone="no"?>
<!-- Generated by Microsoft Visio, SVG Export O365 - Power App Virtual Agent.svg Page-1 -->

<svg
   xmlns:dc="http://purl.org/dc/elements/1.1/"
   xmlns:cc="http://creativecommons.org/ns#"
   xmlns:rdf="http://www.w3.org/1999/02/22-rdf-syntax-ns#"
   xmlns:svg="http://www.w3.org/2000/svg"
   xmlns="http://www.w3.org/2000/svg"
   xmlns:sodipodi="http://sodipodi.sourceforge.net/DTD/sodipodi-0.dtd"
   xmlns:inkscape="http://www.inkscape.org/namespaces/inkscape"
   width="0.78744805in"
   height="0.78742856in"
   viewBox="0 0 56.696258 56.694997"
   xml:space="preserve"
   class="st7"
   version="1.1"
   id="svg58"
   sodipodi:docname="O365 - Power App Virtual Agent.svg"
   style="font-size:12px;overflow:visible;color-interpolation-filters:sRGB;fill:none;fill-rule:evenodd;stroke-linecap:square;stroke-miterlimit:3"
   inkscape:version="0.92.5 (2060ec1f9f, 2020-04-08)"><metadata
   id="metadata62"><rdf:RDF><cc:Work
       rdf:about=""><dc:format>image/svg+xml</dc:format><dc:type
         rdf:resource="http://purl.org/dc/dcmitype/StillImage" /></cc:Work></rdf:RDF></metadata><sodipodi:namedview
   pagecolor="#ffffff"
   bordercolor="#666666"
   borderopacity="1"
   objecttolerance="10"
   gridtolerance="10"
   guidetolerance="10"
   inkscape:pageopacity="0"
   inkscape:pageshadow="2"
   inkscape:window-width="640"
   inkscape:window-height="480"
   id="namedview60"
   showgrid="false"
   inkscape:zoom="1.8365233"
   inkscape:cx="37.795184"
   inkscape:cy="18.900351"
   inkscape:window-x="0"
   inkscape:window-y="0"
   inkscape:window-maximized="0"
   inkscape:current-layer="svg58" />
	<style
   type="text/css"
   id="style2">
	<![CDATA[
		.st1 {fill:url(#grad0-7);stroke:none;stroke-linecap:butt;stroke-width:0.75}
		.st2 {fill:#000000;fill-opacity:0.32;stroke:none;stroke-linecap:butt;stroke-width:0.75}
		.st3 {fill:#000000;fill-opacity:0.24;stroke:none;stroke-linecap:butt;stroke-width:0.75}
		.st4 {fill:url(#grad0-15);stroke:none;stroke-linecap:butt;stroke-width:0.75}
		.st5 {fill:#4ccbed;stroke:none;stroke-linecap:butt;stroke-width:0.75}
		.st6 {fill:#17aad2;stroke:none;stroke-linecap:butt;stroke-width:0.75}
		.st7 {fill:none;fill-rule:evenodd;font-size:12px;overflow:visible;stroke-linecap:square;stroke-miterlimit:3}
	]]>
	</style>

	<defs
   id="Patterns_And_Gradients">
		<linearGradient
   id="grad0-7"
   x1="0"
   y1="53.828323"
   x2="42.494993"
   y2="53.828323"
   gradientTransform="scale(0.99941187,1.0005885)"
   gradientUnits="userSpaceOnUse">
			<stop
   offset="0"
   stop-color="#117b97"
   stop-opacity="1"
   id="stop4" />
			<stop
   offset="1"
   stop-color="#0a4a5c"
   stop-opacity="1"
   id="stop6" />
		</linearGradient>
		<linearGradient
   id="grad0-15"
   x1="0"
   y1="57.502507"
   x2="41.258302"
   y2="57.502507"
   gradientTransform="scale(1.0310652,0.96987076)"
   gradientUnits="userSpaceOnUse">
			<stop
   offset="0"
   stop-color="#1392b4"
   stop-opacity="1"
   id="stop9" />
			<stop
   offset="1"
   stop-color="#117b97"
   stop-opacity="1"
   id="stop11" />
		</linearGradient>
	</defs>
	<g
   id="g56"
   transform="translate(-5.6693772,-5.6693)">
		<title
   id="title15">Page-1</title>
		<g
   id="group20826-1"
   transform="translate(5.66929,-34.0157)">
			<title
   id="title17">O365 - Power App Virtual Agent.20826</title>
			<g
   id="group20827-2">
				<title
   id="title19">Sheet.20827</title>
				<g
   id="group20828-3">
					<title
   id="title21">Sheet.20828</title>
					<g
   id="shape20829-4">
						<title
   id="title23">Sheet.20829</title>
						<path
   d="M 0,53.86 V 82.2 h 11.8 c 1.3,0 2.36,1.06 2.36,2.37 V 96.38 L 27.62,82.9 c 0.44,-0.45 1.04,-0.7 1.67,-0.7 H 42.47 V 56.22 c 0,-1.3 -1.06,-2.36 -2.36,-2.36 z"
   class="st1"
   id="path25"
   inkscape:connector-curvature="0"
   style="fill:url(#grad0-7);stroke:none;stroke-width:0.75;stroke-linecap:butt" />
					</g>
					<g
   id="shape20830-8"
   transform="translate(14.1564,-14.9004)">
						<title
   id="title28">Sheet.20830</title>
						<path
   d="m 42.54,55.77 -0.07,28.34 h -11.8 c -1.3,0 -2.36,1.06 -2.36,2.37 v 7.53 c 0,1.58 -1.9,2.37 -3.02,1.25 L 14.85,84.8 C 14.4,84.36 13.8,84.11 13.18,84.11 H 2.36 C 1.06,84.11 0,83.06 0,81.75 V 69.94 55.77 Z"
   class="st2"
   id="path30"
   inkscape:connector-curvature="0"
   style="fill:#000000;fill-opacity:0.31999996;stroke:none;stroke-width:0.75;stroke-linecap:butt" />
					</g>
					<g
   id="shape20831-10"
   transform="translate(14.1564,-15.8571)">
						<title
   id="title33">Sheet.20831</title>
						<path
   d="m 42.54,55.77 -0.07,28.34 h -11.8 c -1.3,0 -2.36,1.06 -2.36,2.37 v 7.53 c 0,1.58 -1.9,2.37 -3.02,1.25 L 14.85,84.8 C 14.4,84.36 13.8,84.11 13.18,84.11 H 2.36 C 1.06,84.11 0,83.06 0,81.75 V 69.94 55.77 Z"
   class="st3"
   id="path35"
   inkscape:connector-curvature="0"
   style="fill:#000000;fill-opacity:0.23999999;stroke:none;stroke-width:0.75;stroke-linecap:butt" />
					</g>
					<g
   id="shape20832-12"
   transform="translate(14.1564,-16.0815)">
						<title
   id="title38">Sheet.20832</title>
						<path
   d="m 42.54,55.77 -0.07,28.34 h -11.8 c -1.3,0 -2.36,1.06 -2.36,2.37 v 7.53 c 0,1.58 -1.9,2.37 -3.02,1.25 L 14.85,84.8 C 14.4,84.36 13.8,84.11 13.18,84.11 H 2.36 C 1.06,84.11 0,83.06 0,81.75 V 69.94 55.77 Z"
   class="st4"
   id="path40"
   inkscape:connector-curvature="0"
   style="fill:url(#grad0-15);stroke:none;stroke-width:0.75;stroke-linecap:butt" />
					</g>
					<g
   id="shape20833-16"
   transform="translate(14.1564,-47.2441)">
						<title
   id="title43">Sheet.20833</title>
						<rect
   x="0"
   y="86.9291"
   width="42.4674"
   height="9.4488201"
   class="st5"
   id="rect45"
   style="fill:#4ccbed;stroke:none;stroke-width:0.75;stroke-linecap:butt" />
					</g>
					<g
   id="shape20834-18"
   transform="translate(14.1564,-37.7953)">
						<title
   id="title48">Sheet.20834</title>
						<rect
   x="0"
   y="86.9291"
   width="42.4674"
   height="9.4488201"
   class="st6"
   id="rect50"
   style="fill:#17aad2;stroke:none;stroke-width:0.75;stroke-linecap:butt" />
					</g>
				</g>
			</g>
		</g>
	</g>
</svg>

<?xml version="1.0" encoding="UTF-8" standalone="no"?>
<!DOCTYPE svg PUBLIC "-//W3C//DTD SVG 1.1//EN" "http://www.w3.org/Graphics/SVG/1.1/DTD/svg11.dtd">
<!-- Generated by Microsoft Visio, SVG Export O365 - Power App Virtual Agent.svg Page-1 -->
<svg xmlns="http://www.w3.org/2000/svg" xmlns:xlink="http://www.w3.org/1999/xlink" xmlns:ev="http://www.w3.org/2001/xml-events"
		width="0.944882in" height="1.33858in" viewBox="0 0 68.0315 96.378" xml:space="preserve" color-interpolation-filters="sRGB"
		class="st7">
	<style type="text/css">
	<![CDATA[
		.st1 {fill:url(#grad0-7);stroke:none;stroke-linecap:butt;stroke-width:0.75}
		.st2 {fill:#000000;fill-opacity:0.32;stroke:none;stroke-linecap:butt;stroke-width:0.75}
		.st3 {fill:#000000;fill-opacity:0.24;stroke:none;stroke-linecap:butt;stroke-width:0.75}
		.st4 {fill:url(#grad0-15);stroke:none;stroke-linecap:butt;stroke-width:0.75}
		.st5 {fill:#4ccbed;stroke:none;stroke-linecap:butt;stroke-width:0.75}
		.st6 {fill:#17aad2;stroke:none;stroke-linecap:butt;stroke-width:0.75}
		.st7 {fill:none;fill-rule:evenodd;font-size:12px;overflow:visible;stroke-linecap:square;stroke-miterlimit:3}
	]]>
	</style>

	<defs id="Patterns_And_Gradients">
		<linearGradient id="grad0-7" x1="0" y1="0" x2="1" y2="0" gradientTransform="rotate(62.650441335351 0.5 0.5)">
			<stop offset="0" stop-color="#117b97" stop-opacity="1"/>
			<stop offset="1" stop-color="#0a4a5c" stop-opacity="1"/>
		</linearGradient>
		<linearGradient id="grad0-15" x1="0" y1="0" x2="1" y2="0" gradientTransform="rotate(68.05468974623 0.5 0.5)">
			<stop offset="0" stop-color="#1392b4" stop-opacity="1"/>
			<stop offset="1" stop-color="#117b97" stop-opacity="1"/>
		</linearGradient>
	</defs>
	<g>
		<title>Page-1</title>
		<g id="group20360-1" transform="translate(5.66929,-34.0157)">
			<title>O365 - Power App Virtual Agent.20360</title>
			<g id="group20361-2">
				<title>Sheet.20361</title>
				<g id="group20362-3">
					<title>Sheet.20362</title>
					<g id="shape20363-4">
						<title>Sheet.20363</title>
						<path d="M0 53.86 L0 82.2 L11.8 82.2 C13.1 82.2 14.16 83.26 14.16 84.57 L14.16 96.38 L27.62 82.9 C28.06 82.45
									 28.66 82.2 29.29 82.2 L42.47 82.2 L42.47 56.22 C42.47 54.92 41.41 53.86 40.11 53.86 L0 53.86
									 Z" class="st1"/>
					</g>
					<g id="shape20364-8" transform="translate(14.1564,-14.9004)">
						<title>Sheet.20364</title>
						<path d="M42.54 55.77 L42.47 84.11 L30.67 84.11 C29.37 84.11 28.31 85.17 28.31 86.48 L28.31 94.01 C28.31
									 95.59 26.41 96.38 25.29 95.26 L14.85 84.8 C14.4 84.36 13.8 84.11 13.18 84.11 L2.36 84.11 C1.06
									 84.11 0 83.06 0 81.75 L0 69.94 L0 55.77 L42.54 55.77 Z" class="st2"/>
					</g>
					<g id="shape20365-10" transform="translate(14.1564,-15.8571)">
						<title>Sheet.20365</title>
						<path d="M42.54 55.77 L42.47 84.11 L30.67 84.11 C29.37 84.11 28.31 85.17 28.31 86.48 L28.31 94.01 C28.31
									 95.59 26.41 96.38 25.29 95.26 L14.85 84.8 C14.4 84.36 13.8 84.11 13.18 84.11 L2.36 84.11 C1.06
									 84.11 0 83.06 0 81.75 L0 69.94 L0 55.77 L42.54 55.77 Z" class="st3"/>
					</g>
					<g id="shape20366-12" transform="translate(14.1564,-16.0815)">
						<title>Sheet.20366</title>
						<path d="M42.54 55.77 L42.47 84.11 L30.67 84.11 C29.37 84.11 28.31 85.17 28.31 86.48 L28.31 94.01 C28.31
									 95.59 26.41 96.38 25.29 95.26 L14.85 84.8 C14.4 84.36 13.8 84.11 13.18 84.11 L2.36 84.11 C1.06
									 84.11 0 83.06 0 81.75 L0 69.94 L0 55.77 L42.54 55.77 Z" class="st4"/>
					</g>
					<g id="shape20367-16" transform="translate(14.1564,-47.2441)">
						<title>Sheet.20367</title>
						<rect x="0" y="86.9291" width="42.4674" height="9.44882" class="st5"/>
					</g>
					<g id="shape20368-18" transform="translate(14.1564,-37.7953)">
						<title>Sheet.20368</title>
						<rect x="0" y="86.9291" width="42.4674" height="9.44882" class="st6"/>
					</g>
				</g>
			</g>
		</g>
	</g>
</svg>
